ui/icon/svg/share-sharp.svg

<svg viewBox="0 0 512 512" xmlns="http://www.w3.org/2000/svg"><path d="m272 176v161h-32v-161h-148a12 12 0 0 0 -12 12v280a12 12 0 0 0 12 12h328a12 12 0 0 0 12-12v-280a12 12 0 0 0 -12-12zm0-83.37 64 64 22.63-22.63-102.63-102.63-102.63 102.63 22.63 22.63 64-64v83.37h32z"/></svg>

<svg xmlns="http://www.w3.org/2000/svg" class="ionicon" viewBox="0 0 512 512"><title>Share</title><path d="M272 176v161h-32V176H92a12 12 0 00-12 12v280a12 12 0 0012 12h328a12 12 0 0012-12V188a12 12 0 00-12-12zM272 92.63l64 64L358.63 134 256 31.37 153.37 134 176 156.63l64-64V176h32V92.63z"/></svg>
